X:70
T:Come live with me and be my love
Z:Jack Campin, http://www.campin.me.uk/
F:Jack Campin's Nine-Note Tunebook
% last edit 03-02-2013
S:Simpson, The British Broadside Ballad and Its Music
M:3/4
L:1/4
K:GMin
G G G| B2  B   |c2  B|A3|B B B|B> c d|G Ac|B3 |
d2  A|^F G A/B/|z c B|A3|B B B|c2   G|B A2|G3|]

